modules/ve/ui/styles/images/icons/text-dir-rtl.svg

<?xml version="1.0" encoding="UTF-8"?>
<svg xmlns="http://www.w3.org/2000/svg" width="24" height="24" viewBox="0, 0, 24, 24">
    <g id="text-dir-rtl" opacity=".75">
        <path d="M17 17h2v1h-2l-.469-.5-.531.5h-2v-1h2v-10h-2v-1h2l.5.531.5-.531h2v1h-2zM10.024 8v2h2.976v4h-2.976v1.956l-6.024-3.978z"/>
    </g>
</svg>

<?xml version="1.0" encoding="UTF-8"?>
<!DOCTYPE svg PUBLIC "-//W3C//DTD SVG 1.1//EN" "http://www.w3.org/Graphics/SVG/1.1/DTD/svg11.dtd">
<svg version="1.1" xmlns="http://www.w3.org/2000/svg" xmlns:xlink="http://www.w3.org/1999/xlink" x="0px" y="0px" width="24" height="24" viewBox="0, 0, 24, 24">
  <g id="text-dir-rtl" opacity="0.75">
    <path d="M17,17 L19,17 L19,18 L17,18 L16.531,17.5 L16,18 L14,18 L14,17 L16,17 L16,7 L14,7 L14,6 L16,6 L16.5,6.531 L17,6 L19,6 L19,7 L17,7 z" fill="#000000"/>
    <path d="M10.024,8 L10.024,10 L13,10 L13,14 L10.024,14 L10.024,15.956 L4,11.978 z" fill="#000000"/>
  </g>
  <defs/>
</svg>
